X:1
T:Bezeichnung standardisiert: Christchurch Bells;
T:Bezeichnung standardisiert: Christchurch Bells;
T:23. Englische. M\"uhl. La Glosche. In anderer Quelle: Upon Christchurch Bells in Oxford, "Catch" von Henry Purcell (Anm. S. Wascher);  Le Carillon d'Oxfort - R. A. Feuillet 1706 (Anm. S. Wascher);  "La Carrillion Dox Fort" E.A. Jayme, Wolfenb\"uttel 1717 (Anm. S. Wascher);
T:Henry Purcell (1659 - 1695)
C:Henry Purcell (1659 - 1695)
%%score 1 2
L:1/8
M:2/2
K:F
V:1 treble 
V:2 bass 
V:1
 f2 ff f2 f2 | f6 a2 | g2 f2 e2 d2 | c6 c2 | AB c2 F2 f2 | ef g2 c2 g2 | g2 a2 b2 ag | a6 :: %8
 c'2 c'c' c'2 c'2 | c'6 c2 | d2 e2 f2 gf | e3 d c2 c2 | f3 e d2 d2 | g2 gf e2 e2 | a2 ga b2 a2 | %15
 g3 f f4 :| %16
V:2
[K:C]"^-44,11[sic]" !fermata!F,2 F,,2 C,2 C,,2 | F,,6 F,2 | C,2 D,2 C,2 G,,2 | C,,6 C,2 | %4
 F,,2 F,2 F,,2 F,2 | C,2 C,2 C,4 | C,2 F,2 G,2 F,2 | F,,6 :: C,4 C,4 | C,,6 C,2 | %10
 B,,2 C,2 D,2 C,2 | G,2 G,,2 C,4 | D,2 C,2 B,,4 | C,2 D,2 C,4 | F,2 C,2 G,,2 F,,2 | %15
 C,2 C,,2 F,,4 :| %16

